!!!OTL: VATER UND MUTTER WOLLNS NICHT LEIDEN
!!!ARE: Europa, Mitteleuropa, Deutschland, Thueringen; Sachsen
!!!ARD1: Europa%Mitteleuropa%Deutschland@Sachsen#
!!!ARL1: 51.00/13.25#
!!!ARD2: Europa%Mitteleuropa%Deutschland@Thueringen#
!!!ARL2: 50.91/11.00#
!!!SCT: E0722C
!!!YEM: Copyright 1995, estate of Helmut Schaffrath.
**kern
*ICvox
*Ivox
*M3/4
*k[b-e-a-]
*E-:
{8g
8a-
=1
4b-
4e-
8ee-
8cc
=2
4b-
4g}
{8b-
8b-
=3
8cc
8a-
4g
4f
=4
2e-}
{8g
8a-
=5
4b-
4e-
8ee-
8cc
=6
4b-
4g}
{8b-
8b-
=7
8cc
8a-
4g
4f
=8
2e-}
{8b-
8b-
=9
4.cc
8f
8f
8f
=10
4b-
4e-}
{8b-
8ee-
=11
8cc
8a-
4g
4f
=12
2e-}
==
!!!AGN: Liebes - Lied, Leid, Klage
!!!ONB: ESAC (Essen Associative Code) Database: ERK2
!!!AMT: simple triple
!!!AIN: vox
!!!EED: Helmut Schaffrath
!!!EEV: 1.0
*-
